svg/u0038.svg

<svg viewBox="0 0 128 128" xmlns="http://www.w3.org/2000/svg">
  <linearGradient id="SVGID_1_" gradientUnits="userSpaceOnUse" x1="64.01" x2="64.01" y1="101.51" y2="25.39">
    <stop offset="0.4852" stop-color="#504F4F"/>
    <stop offset="1" stop-color="#757575"/>
  </linearGradient>
  <path d="M86.61,46.52c0,3.62-0.93,6.85-2.79,9.68s-4.4,5.05-7.62,6.68c3.86,1.8,6.83,4.25,8.92,7.37 c2.08,3.12,3.12,6.64,3.12,10.57c0,6.5-2.2,11.66-6.6,15.47s-10.26,5.72-17.58,5.72c-7.35,0-13.23-1.91-17.65-5.74 s-6.63-8.97-6.63-15.44c0-3.96,1.05-7.52,3.15-10.67s5.05-5.57,8.84-7.27c-3.18-1.63-5.7-3.85-7.54-6.68 c-1.85-2.83-2.77-6.05-2.77-9.68c0-6.3,2.03-11.29,6.1-14.99C51.6,27.85,57.09,26,64,26c6.94,0,12.45,1.85,16.51,5.54 S86.61,40.22,86.61,46.52z M75.89,80.21c0-3.66-1.09-6.61-3.28-8.86s-5.07-3.38-8.66-3.38s-6.46,1.12-8.61,3.35 c-2.15,2.24-3.23,5.2-3.23,8.89c0,3.62,1.06,6.52,3.18,8.69s5.04,3.25,8.76,3.25c3.73,0,6.63-1.05,8.71-3.15 C74.85,86.9,75.89,83.97,75.89,80.21z M74.31,46.98c0-3.22-0.93-5.87-2.79-7.95s-4.37-3.12-7.52-3.12s-5.64,0.99-7.47,2.97 s-2.74,4.68-2.74,8.1c0,3.39,0.92,6.08,2.77,8.08s4.34,3,7.49,3s5.65-1,7.49-3C73.39,53.06,74.31,50.37,74.31,46.98z" fill="url(#SVGID_1_)"/>
</svg>

<svg viewBox="0 0 128 128" xmlns="http://www.w3.org/2000/svg">
  <defs>
    <linearGradient id="SVGID_1_" gradientUnits="userSpaceOnUse" x1="64.01" x2="64.01" y1="101.51" y2="25.39">
      <stop offset="0.4852" stop-color="#504F4F"/>
      <stop offset="1" stop-color="#757575"/>
    </linearGradient>
  </defs>
  <path d="M86.61,46.52 C86.61,50.14 85.68,53.37 83.82,56.2 C81.96,59.03 79.42,61.25 76.2,62.88 C80.06,64.68 83.03,67.13 85.12,70.25 C87.2,73.37 88.24,76.89 88.24,80.82 C88.24,87.32 86.04,92.48 81.64,96.29 C77.24,100.1 71.38,102.01 64.06,102.01 C56.71,102.01 50.83,100.1 46.41,96.27 C41.99,92.44 39.78,87.3 39.78,80.83 C39.78,76.87 40.83,73.31 42.93,70.16 C45.03,67.01 47.98,64.59 51.77,62.89 C48.59,61.26 46.07,59.04 44.23,56.21 C42.38,53.38 41.46,50.16 41.46,46.53 C41.46,40.23 43.49,35.24 47.56,31.54 C51.6,27.85 57.09,26 64,26 C70.94,26 76.45,27.85 80.51,31.54 C84.57,35.23 86.61,40.22 86.61,46.52 Z M75.89,80.21 C75.89,76.55 74.8,73.6 72.61,71.35 C70.42,69.1 67.54,67.97 63.95,67.97 C60.36,67.97 57.49,69.09 55.34,71.32 C53.19,73.56 52.11,76.52 52.11,80.21 C52.11,83.83 53.17,86.73 55.29,88.9 C57.41,91.07 60.33,92.15 64.05,92.15 C67.78,92.15 70.68,91.1 72.76,89 C74.85,86.9 75.89,83.97 75.89,80.21 Z M74.31,46.98 C74.31,43.76 73.38,41.11 71.52,39.03 C69.66,36.95 67.15,35.91 64,35.91 C60.85,35.91 58.36,36.9 56.53,38.88 C54.7,40.86 53.79,43.56 53.79,46.98 C53.79,50.37 54.71,53.06 56.56,55.06 C58.41,57.06 60.9,58.06 64.05,58.06 C67.2,58.06 69.7,57.06 71.54,55.06 C73.39,53.06 74.31,50.37 74.31,46.98 Z" fill="url(#SVGID_1_)"/>
</svg>
